src/assets/images/Groupviolet.svg

<svg width="485" height="680" fill="none" xmlns="http://www.w3.org/2000/svg"><g filter="url(#filter0_d)" stroke-miterlimit="10"><path d="M246.301 317.193s-65.159-28.077-25.726-28.623c39.433-.545 19.477-24.125 44.747-1.418 25.271 22.707 35.131-6.713 25.02 12.772-10.112 19.485 23.716 4.8 3.988 26.962-19.728 22.161 2.096 113.578-27.233 87.086-29.33-26.492 23.763-100.538-14.634-82.161-38.396 18.378-6.162-14.618-6.162-14.618z" stroke="url(#paint0_linear)" stroke-width="2"/><path d="M209.851 274.313c35.743-6.503 18.99-29.143 47.393-6.361 30.428 24.394 40.916-14.827 35.327 7.016-5.307 20.819 28.811 10.716 13.974 34.816-.974 1.577-2.049 3.298-3.141 5.228-8.949 15.7-10.692 46.992-5.73 59.923 2.425 6.302 2.912 20.979-1.877 32.215-8.564 20.089-13.118 43.955-29.674 23.496-15.811-19.527-17.766-41.277-16.023-52.614 1.821-11.748 1.005-26.081-4.098-34.17-1.397-2.216-4.419-2.803-8.816-1.595-24.116 6.663-10.072-12.637-6.178-20.441 1.287-2.56 2.473-4.381 1.845-4.674-3.368-1.561-22.115-12.504-31.158-22.406-5.81-6.327-8.722-11.924-4.145-15.104 3.698-2.693 7.892-4.51 12.301-5.329z" stroke="url(#paint1_linear)" stroke-width="2.273"/><path d="M199.136 260.048c31.464-11.749 18.581-34.246 50.022-11.304 35.649 26.014 46.734-22.892 45.666 1.276-1.028 23.278 37.627 15.314 21.196 45.96a122.435 122.435 0 00-3.556 7.166c-10.543 23.639-8.188 67.535-1.971 77.588 7.144 2.744 6.972 24.335-3.006 39.087-14.304 21.189-22.547 56.29-42.33 27.507-19.194-27.91-25.513-51.683-25.906-56.751-.416-5.413-8.07-17.27-11.155-32.056-.691-3.356-2.858-5.588-6.163-5.781-18.645-1.116-2.842-23.085-2.096-30.772.236-2.4.824-4.263-.44-4.858-6.735-3.13-26.926-17.547-33.646-30.05-4.318-7.989-5.276-14.56.18-18.344 3.611-2.492 7.654-6.587 13.205-8.668z" stroke="url(#paint2_linear)" stroke-width="2.545"/><path d="M188.42 245.782c29.415-9.44 18.228-39.44 52.644-16.237 40.925 27.566 52.598-30.948 55.997-4.481 3.298 25.77 46.522 19.963 28.419 57.103-1.343 2.753-2.701 5.791-3.925 9.114-11.996 31.644-7.929 88.79 1.782 95.243 10.88-.26 11.391 27.985-4.122 45.977-19.626 22.707-31.959 68.617-55 31.51-22.554-36.319-33.105-61.971-35.766-60.897-2.504 1.007-17.718-8.484-18.213-29.949-.102-4.448-1.099-8.3-3.517-9.961-12.27-8.467 6.343-33.7 1.994-41.118-.236-2.165-.785-4.146-2.724-5.035-10.104-4.699-31.739-22.607-36.112-37.711-2.834-9.634-1.845-17.178 4.506-21.583 4.491-3.122 9.256-7.569 14.037-11.975z" stroke="url(#paint3_linear)" stroke-width="2.818"/><path d="M177.704 231.525c26.079-12.411 17.915-44.651 55.275-21.18 46.239 29.051 58.509-39.004 66.312-10.238 7.67 28.254 55.479 24.646 35.649 68.256a115.306 115.306 0 00-4.357 11.052c-13.346 39.666-7.631 110.046 5.534 112.907 14.626-3.281 15.952 31.888-5.244 52.866-24.784 24.495-41.348 80.936-67.662 35.513-25.907-44.718-40.823-72.477-45.635-65.034-4.71 7.225-27.563.143-25.27-27.834.463-5.614.628-10.733-.864-14.157-6.155-14.173 14.296-44.332 6.076-51.423-1.071-2.289-2.836-4.123-5.008-5.202-13.471-6.26-36.56-27.65-38.616-45.356-1.343-11.287 1.57-19.813 8.839-24.831 5.472-3.818 10.622-9.541 14.971-15.339z" stroke="url(#paint4_linear)" stroke-width="3.091"/><path d="M166.98 217.26c22.767-15.374 17.625-49.921 57.905-26.115 51.585 30.487 64.436-47.076 76.643-15.985 12.059 30.712 64.46 29.319 42.872 79.391a128.058 128.058 0 00-4.758 12.982c-14.688 47.689-7.065 133.676 9.287 130.563 18.99-3.6 20.576 35.982-6.366 59.73-29.981 26.433-50.636 93.196-80.318 39.524-29.156-53.193-48.515-82.908-55.502-69.179-6.877 13.535-37.494 8.685-32.336-25.712 1.02-6.797 2.072-13.149 1.79-18.335-1.091-19.972 21.337-53.37 10.158-61.753-2.119-1.586-4.129-3.902-7.293-5.379-16.839-7.821-41.371-32.727-41.097-53.009.149-12.939 5.032-22.439 13.158-28.069 6.413-4.464 11.948-11.379 15.857-18.654z" stroke="url(#paint5_linear)" stroke-width="3.364"/><path d="M156.264 202.994c19.399-18.335 17.342-55.224 60.535-31.048 56.947 31.887 70.371-55.174 86.967-21.743 16.485 33.172 73.448 34.011 50.101 90.544a140.243 140.243 0 00-5.166 14.937c-15.983 55.719-6.602 154.403 13.04 148.227 22.766-7.192 25.223 40.162-7.482 66.603-35.209 28.464-60.039 105.523-92.988 43.527-32.508-61.594-56.232-93.33-65.37-73.317-9.099 19.821-47.393 17.144-39.393-23.613 1.57-8.006 3.47-15.701 4.443-22.523 3.776-26.374 29.643-64.22 14.241-72.083-2.874-1.46-5.786-3.784-9.578-5.546-20.207-9.399-46.184-37.762-43.577-60.662 1.633-14.593 8.47-25.066 17.482-31.317 7.348-5.102 13.244-13.267 16.745-21.986z" stroke="url(#paint6_linear)" stroke-width="3.636"/><path d="M145.549 188.737c16.054-21.306 17.067-60.561 63.156-35.999 62.332 33.23 76.322-63.272 97.29-27.482 20.875 35.605 82.469 38.701 57.308 101.679a154.877 154.877 0 00-5.566 16.875c-17.271 63.775-6.28 175.248 16.792 165.9 26.464-10.733 29.887 44.416-8.635 73.475-40.422 30.545-69.374 117.85-105.58 47.538-35.877-70.002-63.942-103.752-75.254-77.462-11.281 26.123-57.308 25.586-46.451-21.507 2.127-9.231 4.875-18.293 7.065-26.702 8.714-33.045 37.824-75.154 18.323-82.404-3.658-1.368-7.434-3.667-11.87-5.731-23.551-10.959-50.988-42.797-46.058-68.307 1.281-7.03 3.871-13.713 7.618-19.651 3.747-5.938 8.572-11.01 14.191-14.913 8.321-5.757 14.633-15.155 17.671-25.309z" stroke="url(#paint7_linear)" stroke-width="3.909"/><path d="M134.833 174.471c9.475-25.904 16.792-65.915 65.786-40.933 67.718 34.539 82.257-71.386 107.614-33.239 25.357 38.148 91.481 43.393 64.554 112.832a167.702 167.702 0 00-5.967 18.814c-18.519 71.78-6.037 196.108 20.545 183.555 30.083-14.199 34.542 48.729-9.719 80.356-45.721 32.652-78.865 130.177-118.313 51.541-39.213-78.393-71.62-114.124-85.115-81.599-13.494 32.525-67.246 34.002-53.508-19.393 2.685-10.43 6.28-20.92 9.75-30.889 13.723-39.817 45.925-86.088 22.405-92.734-4.467-1.267-9.09-3.549-14.13-5.874-26.935-12.52-55.809-47.831-48.54-75.959 4.068-15.609 13.372-29.07 26.135-37.812 9.2-6.437 14.452-17.564 18.503-28.666z" stroke="url(#paint8_linear)" stroke-width="4.182"/><path d="M124.109 160.214c7.066-28.027 16.533-71.327 68.417-45.876 73.118 35.815 88.285-79.568 117.944-38.97 29.753 40.388 100.485 48.083 71.776 123.976a183.652 183.652 0 00-6.374 20.76c-19.768 79.803-5.841 217.004 24.336 201.219 33.663-17.622 39.197 53.068-10.849 87.271-51.02 34.758-88.223 142.429-131 55.485-42.565-86.801-79.289-124.572-94.99-85.744-15.701 38.827-77.17 42.41-60.566-17.287 3.243-11.647 7.756-23.554 12.404-35.076 18.778-46.631 53.964-97.005 26.487-103.056-5.291-1.166-10.739-3.432-16.439-6.075-30.302-14.089-60.62-52.908-51.027-83.613 6.092-19.552 18.786-32.953 30.452-41.059 10.182-7.049 16.203-19.183 19.429-31.955z" stroke="url(#paint9_linear)" stroke-width="4.455"/><path d="M113.393 145.949c4.852-30.453 16.274-76.673 71.047-50.81 78.504 37.073 94.204-87.666 128.259-44.744 34.056 42.922 109.631 52.808 79.007 135.103a204.99 204.99 0 00-6.775 22.699c-20.874 87.867-5.684 237.931 28.065 218.891 37.243-20.978 43.853 57.431-11.972 94.119-56.287 36.989-97.619 154.831-143.662 59.579-46.043-95.251-86.983-135.01-104.819-89.914-17.836 45.096-87.092 50.81-67.63-15.172 3.799-12.873 9.216-26.19 15.048-39.264 23.873-53.47 62.019-107.906 30.617-113.385a75.975 75.975 0 01-18.723-6.252c-33.67-15.658-65.473-57.951-53.548-91.224 7.591-21.238 22.233-35.621 34.793-44.34 11.093-7.687 18.009-20.903 20.293-35.286z" stroke="url(#paint10_linear)" stroke-width="4.727"/><path d="M81.481 170.301c12.043-8.392 19.909-22.708 21.197-38.601 2.684-33.171 16.007-82.069 73.668-55.744 83.921 38.307 100.092-95.772 138.591-50.5 38.498 45.272 118.541 57.464 86.229 146.263-32.313 88.798-16.164 285.562 24.642 261.184 40.807-24.377 48.508 61.812-13.086 100.992-61.595 39.18-107.025 167.141-156.333 63.54-49.309-103.601-94.7-145.391-114.718-93.984-20.019 51.406-96.984 59.159-74.658-13.1 22.327-72.258 96.246-161.065 52.362-167.158-43.883-6.092-93.938-62.684-76.996-105.346 9.114-22.859 25.663-38.215 39.102-47.546z" stroke="url(#paint11_linear)" stroke-width="5"/></g><defs><linearGradient id="paint0_linear" x1="207.104" y1="348.024" x2="301.434" y2="348.024" gradientUnits="userSpaceOnUse"><stop stop-color="#C324FF"/><stop offset="1" stop-color="#2B66FF"/></linearGradient><linearGradient id="paint1_linear" x1="26539.7" y1="81674.8" x2="43654" y2="81674.8" gradientUnits="userSpaceOnUse"><stop stop-color="#C324FF"/><stop offset="1" stop-color="#2B66FF"/></linearGradient><linearGradient id="paint2_linear" x1="29449.5" y1="99288.2" x2="54030.2" y2="99288.2" gradientUnits="userSpaceOnUse"><stop stop-color="#2B66FF"/><stop offset="1" stop-color="#C324FF"/></linearGradient><linearGradient id="paint3_linear" x1="31829.2" y1="117450" x2="66071.2" y2="117450" gradientUnits="userSpaceOnUse"><stop stop-color="#C324FF"/><stop offset="1" stop-color="#2B66FF"/></linearGradient><linearGradient id="paint4_linear" x1="34093.9" y1="136749" x2="82331.7" y2="136749" gradientUnits="userSpaceOnUse"><stop stop-color="#2B66FF"/><stop offset="1" stop-color="#C324FF"/></linearGradient><linearGradient id="paint5_linear" x1="35127.2" y1="155750" x2="100402" y2="155750" gradientUnits="userSpaceOnUse"><stop stop-color="#C324FF"/><stop offset="1" stop-color="#2B66FF"/></linearGradient><linearGradient id="paint6_linear" x1="34766.6" y1="174526" x2="119833" y2="174526" gradientUnits="userSpaceOnUse"><stop stop-color="#2B66FF"/><stop offset="1" stop-color="#C324FF"/></linearGradient><linearGradient id="paint7_linear" x1="33028.9" y1="193016" x2="140644" y2="193016" gradientUnits="userSpaceOnUse"><stop stop-color="#C324FF"/><stop offset="1" stop-color="#2B66FF"/></linearGradient><linearGradient id="paint8_linear" x1="29889" y1="211222" x2="162795" y2="211222" gradientUnits="userSpaceOnUse"><stop stop-color="#2B66FF"/><stop offset=".526" stop-color="#C324FF"/></linearGradient><linearGradient id="paint9_linear" x1="25350.3" y1="229140" x2="186343" y2="229140" gradientUnits="userSpaceOnUse"><stop stop-color="#C324FF"/><stop offset="1" stop-color="#2B66FF"/></linearGradient><linearGradient id="paint10_linear" x1="19388.4" y1="246788" x2="211193" y2="246788" gradientUnits="userSpaceOnUse"><stop stop-color="#2B66FF"/><stop offset="1" stop-color="#C324FF"/></linearGradient><linearGradient id="paint11_linear" x1="12009.4" y1="264129" x2="237404" y2="264129" gradientUnits="userSpaceOnUse"><stop stop-color="#B657FF"/><stop offset="1" stop-color="#2B66FF"/></linearGradient><filter id="filter0_d" x=".496" y="-18.5" width="495.696" height="698.035" filterUnits="userSpaceOnUse" color-interpolation-filters="sRGB"><feFlood flood-opacity="0" result="BackgroundImageFix"/><feColorMatrix in="SourceAlpha" values="0 0 0 0 0 0 0 0 0 0 0 0 0 0 0 0 0 0 127 0"/><feOffset dy="4"/><feGaussianBlur stdDeviation="18"/><feColorMatrix values="0 0 0 0 0.764706 0 0 0 0 0.141176 0 0 0 0 1 0 0 0 1 0"/><feBlend in2="BackgroundImageFix" result="effect1_dropShadow"/><feBlend in="SourceGraphic" in2="effect1_dropShadow" result="shape"/></filter></defs></svg>

<svg width="485" height="680" viewBox="0 0 485 680" fill="none" xmlns="http://www.w3.org/2000/svg">
<g filter="url(#filter0_d)">
<path d="M246.301 317.193C246.301 317.193 181.142 289.116 220.575 288.57C260.008 288.025 240.052 264.445 265.322 287.152C290.593 309.859 300.453 280.439 290.342 299.924C280.23 319.409 314.058 304.724 294.33 326.886C274.602 349.047 296.426 440.464 267.097 413.972C237.767 387.48 290.86 313.434 252.463 331.811C214.067 350.189 246.301 317.193 246.301 317.193Z" stroke="url(#paint0_linear)" stroke-width="2" stroke-miterlimit="10"/>
<path d="M209.851 274.313C245.594 267.81 228.841 245.17 257.244 267.952C287.672 292.346 298.16 253.125 292.571 274.968C287.264 295.787 321.382 285.684 306.545 309.784C305.571 311.361 304.496 313.082 303.404 315.012C294.455 330.712 292.712 362.004 297.674 374.935C300.099 381.237 300.586 395.914 295.797 407.15C287.233 427.239 282.679 451.105 266.123 430.646C250.312 411.119 248.357 389.369 250.1 378.032C251.921 366.284 251.105 351.951 246.002 343.862C244.605 341.646 241.583 341.059 237.186 342.267C213.07 348.93 227.114 329.63 231.008 321.826C232.295 319.266 233.481 317.445 232.853 317.152C229.485 315.591 210.738 304.648 201.695 294.746C195.885 288.419 192.973 282.822 197.55 279.642C201.248 276.949 205.442 275.132 209.851 274.313Z" stroke="url(#paint1_linear)" stroke-width="2.27273" stroke-miterlimit="10"/>
<path d="M199.136 260.048C230.6 248.299 217.717 225.802 249.158 248.744C284.807 274.758 295.892 225.852 294.824 250.02C293.796 273.298 332.451 265.334 316.02 295.98C314.858 298.136 313.665 300.52 312.464 303.146C301.921 326.785 304.276 370.681 310.493 380.734C317.637 383.478 317.465 405.069 307.487 419.821C293.183 441.01 284.94 476.111 265.157 447.328C245.963 419.418 239.644 395.645 239.251 390.577C238.835 385.164 231.181 373.307 228.096 358.521C227.405 355.165 225.238 352.933 221.933 352.74C203.288 351.624 219.091 329.655 219.837 321.968C220.073 319.568 220.661 317.705 219.397 317.11C212.662 313.98 192.471 299.563 185.751 287.06C181.433 279.071 180.475 272.5 185.931 268.716C189.542 266.224 193.585 262.129 199.136 260.048Z" stroke="url(#paint2_linear)" stroke-width="2.54545" stroke-miterlimit="10"/>
<path d="M188.42 245.782C217.835 236.342 206.648 206.342 241.064 229.545C281.989 257.111 293.662 198.597 297.061 225.064C300.359 250.834 343.583 245.027 325.48 282.167C324.137 284.92 322.779 287.958 321.555 291.281C309.559 322.925 313.626 380.071 323.337 386.524C334.217 386.264 334.728 414.509 319.215 432.501C299.589 455.208 287.256 501.118 264.215 464.011C241.661 427.692 231.11 402.04 228.449 403.114C225.945 404.121 210.731 394.63 210.236 373.165C210.134 368.717 209.137 364.865 206.719 363.204C194.449 354.737 213.062 329.504 208.713 322.086C208.477 319.921 207.928 317.94 205.989 317.051C195.885 312.352 174.25 294.444 169.877 279.34C167.043 269.706 168.032 262.162 174.383 257.757C178.874 254.635 183.639 250.188 188.42 245.782Z" stroke="url(#paint3_linear)" stroke-width="2.81818" stroke-miterlimit="10"/>
<path d="M177.704 231.525C203.783 219.114 195.619 186.874 232.979 210.345C279.218 239.396 291.488 171.341 299.291 200.107C306.961 228.361 354.77 224.753 334.94 268.363C333.302 271.961 331.848 275.65 330.583 279.415C317.237 319.081 322.952 389.461 336.117 392.322C350.743 389.041 352.069 424.21 330.873 445.188C306.089 469.683 289.525 526.124 263.211 480.701C237.304 435.983 222.388 408.224 217.576 415.667C212.866 422.892 190.013 415.81 192.306 387.833C192.769 382.219 192.934 377.1 191.442 373.676C185.287 359.503 205.738 329.344 197.518 322.253C196.447 319.964 194.682 318.13 192.51 317.051C179.039 310.791 155.95 289.401 153.894 271.695C152.551 260.408 155.464 251.882 162.733 246.864C168.205 243.046 173.355 237.323 177.704 231.525Z" stroke="url(#paint4_linear)" stroke-width="3.09091" stroke-miterlimit="10"/>
<path d="M166.98 217.26C189.747 201.886 184.605 167.339 224.885 191.145C276.47 221.632 289.321 144.069 301.528 175.16C313.587 205.872 365.988 204.479 344.4 254.551C342.585 258.779 340.997 263.113 339.642 267.533C324.954 315.222 332.577 401.209 348.929 398.096C367.919 394.496 369.505 434.078 342.563 457.826C312.582 484.259 291.927 551.022 262.245 497.35C233.089 444.157 213.73 414.442 206.743 428.171C199.866 441.706 169.249 436.856 174.407 402.459C175.427 395.662 176.479 389.31 176.197 384.124C175.106 364.152 197.534 330.754 186.355 322.371C184.236 320.785 182.226 318.469 179.062 316.992C162.223 309.171 137.691 284.265 137.965 263.983C138.114 251.044 142.997 241.544 151.123 235.914C157.536 231.45 163.071 224.535 166.98 217.26Z" stroke="url(#paint5_linear)" stroke-width="3.36364" stroke-miterlimit="10"/>
<path d="M156.264 202.994C175.663 184.659 173.606 147.77 216.799 171.946C273.746 203.833 287.17 116.772 303.766 150.203C320.251 183.375 377.214 184.214 353.867 240.747C351.87 245.612 350.145 250.6 348.701 255.684C332.718 311.403 342.099 410.087 361.741 403.911C384.507 396.719 386.964 444.073 354.259 470.514C319.05 498.978 294.22 576.037 261.271 514.041C228.763 452.447 205.039 420.711 195.901 440.724C186.802 460.545 148.508 457.868 156.508 417.111C158.078 409.105 159.978 401.41 160.951 394.588C164.727 368.214 190.594 330.368 175.192 322.505C172.318 321.045 169.406 318.721 165.614 316.959C145.407 307.56 119.43 279.197 122.037 256.297C123.67 241.704 130.507 231.231 139.519 224.98C146.867 219.878 152.763 211.713 156.264 202.994Z" stroke="url(#paint6_linear)" stroke-width="3.63636" stroke-miterlimit="10"/>
<path d="M145.549 188.737C161.603 167.431 162.616 128.176 208.705 152.738C271.037 185.968 285.027 89.466 305.995 125.256C326.87 160.861 388.464 163.957 363.303 226.935C361.131 232.435 359.272 238.07 357.737 243.81C340.466 307.585 351.457 419.058 374.529 409.71C400.993 398.977 404.416 454.126 365.894 483.185C325.472 513.73 296.52 601.035 260.314 530.723C224.437 460.721 196.372 426.971 185.06 453.261C173.779 479.384 127.752 478.847 138.609 431.754C140.736 422.523 143.484 413.461 145.674 405.052C154.388 372.007 183.498 329.898 163.997 322.648C160.339 321.28 156.563 318.981 152.127 316.917C128.576 305.958 101.139 274.12 106.069 248.61C107.35 241.58 109.94 234.897 113.687 228.959C117.434 223.021 122.259 217.949 127.878 214.046C136.199 208.289 142.511 198.891 145.549 188.737Z" stroke="url(#paint7_linear)" stroke-width="3.90909" stroke-miterlimit="10"/>
<path d="M134.833 174.471C144.308 148.567 151.625 108.556 200.619 133.538C268.337 168.077 282.876 62.1516 308.233 100.299C333.59 138.447 399.714 143.692 372.787 213.131C370.435 219.264 368.443 225.547 366.82 231.945C348.301 303.725 360.783 428.053 387.365 415.5C417.448 401.301 421.907 464.229 377.646 495.856C331.925 528.508 298.781 626.033 259.333 547.397C220.12 469.004 187.713 433.273 174.218 465.798C160.724 498.323 106.972 499.8 120.71 446.405C123.395 435.975 126.99 425.485 130.46 415.516C144.183 375.699 176.385 329.428 152.865 322.782C148.398 321.515 143.775 319.233 138.735 316.908C111.8 304.388 82.9261 269.077 90.1956 240.949C94.263 225.34 103.567 211.879 116.33 203.137C125.53 196.7 130.782 185.573 134.833 174.471Z" stroke="url(#paint8_linear)" stroke-width="4.18182" stroke-miterlimit="10"/>
<path d="M124.109 160.214C131.175 132.187 140.642 88.8867 192.526 114.338C265.644 150.153 280.811 34.7701 310.47 75.368C340.223 115.756 410.955 123.451 382.246 199.344C379.719 206.115 377.59 213.049 375.872 220.104C356.104 299.907 370.031 437.108 400.208 421.323C433.871 403.701 439.405 474.391 389.359 508.594C338.339 543.352 301.136 651.023 258.359 564.079C215.794 477.278 179.07 439.507 163.369 478.335C147.668 517.162 86.1997 520.745 102.803 461.048C106.046 449.401 110.559 437.494 115.207 425.972C133.985 379.341 169.171 328.967 141.694 322.916C136.403 321.75 130.955 319.484 125.255 316.841C94.9529 302.752 64.6346 263.933 74.2278 233.228C80.3197 213.676 93.0138 200.275 104.68 192.169C114.862 185.12 120.883 172.986 124.109 160.214Z" stroke="url(#paint9_linear)" stroke-width="4.45455" stroke-miterlimit="10"/>
<path d="M113.393 145.949C118.245 115.496 129.667 69.2759 184.44 95.1384C262.944 132.212 278.644 7.47268 312.699 50.3951C346.755 93.3174 422.33 103.203 391.706 185.498C389.017 192.91 386.755 200.49 384.931 208.197C364.057 296.064 379.247 446.128 412.996 427.088C450.239 406.11 456.849 484.519 401.024 521.207C344.737 558.196 303.405 676.038 257.362 580.786C211.319 485.535 170.379 445.776 152.543 490.872C134.707 535.968 65.451 541.682 84.9121 475.7C88.7117 462.827 94.1285 449.51 99.9614 436.436C123.834 382.966 161.98 328.53 130.578 323.051C124.12 321.799 117.831 319.7 111.855 316.799C78.1843 301.141 46.3824 258.848 58.3071 225.575C65.8985 204.337 80.5395 189.954 93.1001 181.235C104.193 173.548 111.109 160.332 113.393 145.949Z" stroke="url(#paint10_linear)" stroke-width="4.72727" stroke-miterlimit="10"/>
<path d="M81.4815 170.301C93.5241 161.909 101.39 147.593 102.678 131.7C105.362 98.5285 118.685 49.6314 176.346 75.9555C260.267 114.263 276.438 -19.8164 314.937 25.4556C353.435 70.7276 433.478 82.9204 401.166 171.719C368.853 260.517 385.002 457.281 425.808 432.903C466.615 408.526 474.316 494.715 412.722 533.895C351.127 573.075 305.697 701.036 256.389 597.435C207.08 493.834 161.689 452.044 141.671 503.451C121.652 554.857 44.6867 562.61 67.0132 490.351C89.3398 418.093 163.259 329.286 119.375 323.193C75.4917 317.101 25.4375 260.509 42.3787 217.847C51.493 194.988 68.0416 179.632 81.4815 170.301Z" stroke="url(#paint11_linear)" stroke-width="5" stroke-miterlimit="10"/>
</g>
<defs>
<filter id="filter0_d" x="0.495667" y="-18.5005" width="495.696" height="698.035" filterUnits="userSpaceOnUse" color-interpolation-filters="sRGB">
<feFlood flood-opacity="0" result="BackgroundImageFix"/>
<feColorMatrix in="SourceAlpha" type="matrix" values="0 0 0 0 0 0 0 0 0 0 0 0 0 0 0 0 0 0 127 0"/>
<feOffset dy="4"/>
<feGaussianBlur stdDeviation="18"/>
<feColorMatrix type="matrix" values="0 0 0 0 0.764706 0 0 0 0 0.141176 0 0 0 0 1 0 0 0 1 0"/>
<feBlend mode="normal" in2="BackgroundImageFix" result="effect1_dropShadow"/>
<feBlend mode="normal" in="SourceGraphic" in2="effect1_dropShadow" result="shape"/>
</filter>
<linearGradient id="paint0_linear" x1="207.104" y1="348.024" x2="301.434" y2="348.024" gradientUnits="userSpaceOnUse">
<stop stop-color="#C324FF"/>
<stop offset="1" stop-color="#2B66FF"/>
</linearGradient>
<linearGradient id="paint1_linear" x1="26539.7" y1="81674.8" x2="43654" y2="81674.8" gradientUnits="userSpaceOnUse">
<stop stop-color="#C324FF"/>
<stop offset="1" stop-color="#2B66FF"/>
</linearGradient>
<linearGradient id="paint2_linear" x1="29449.5" y1="99288.2" x2="54030.2" y2="99288.2" gradientUnits="userSpaceOnUse">
<stop stop-color="#2B66FF"/>
<stop offset="1" stop-color="#C324FF"/>
</linearGradient>
<linearGradient id="paint3_linear" x1="31829.2" y1="117450" x2="66071.2" y2="117450" gradientUnits="userSpaceOnUse">
<stop stop-color="#C324FF"/>
<stop offset="1" stop-color="#2B66FF"/>
</linearGradient>
<linearGradient id="paint4_linear" x1="34093.9" y1="136749" x2="82331.7" y2="136749" gradientUnits="userSpaceOnUse">
<stop stop-color="#2B66FF"/>
<stop offset="1" stop-color="#C324FF"/>
</linearGradient>
<linearGradient id="paint5_linear" x1="35127.2" y1="155750" x2="100402" y2="155750" gradientUnits="userSpaceOnUse">
<stop stop-color="#C324FF"/>
<stop offset="1" stop-color="#2B66FF"/>
</linearGradient>
<linearGradient id="paint6_linear" x1="34766.6" y1="174526" x2="119833" y2="174526" gradientUnits="userSpaceOnUse">
<stop stop-color="#2B66FF"/>
<stop offset="1" stop-color="#C324FF"/>
</linearGradient>
<linearGradient id="paint7_linear" x1="33028.9" y1="193016" x2="140644" y2="193016" gradientUnits="userSpaceOnUse">
<stop stop-color="#C324FF"/>
<stop offset="1" stop-color="#2B66FF"/>
</linearGradient>
<linearGradient id="paint8_linear" x1="29889" y1="211222" x2="162795" y2="211222" gradientUnits="userSpaceOnUse">
<stop stop-color="#2B66FF"/>
<stop offset="0.526042" stop-color="#C324FF"/>
</linearGradient>
<linearGradient id="paint9_linear" x1="25350.3" y1="229140" x2="186343" y2="229140" gradientUnits="userSpaceOnUse">
<stop stop-color="#C324FF"/>
<stop offset="1" stop-color="#2B66FF"/>
</linearGradient>
<linearGradient id="paint10_linear" x1="19388.4" y1="246788" x2="211193" y2="246788" gradientUnits="userSpaceOnUse">
<stop stop-color="#2B66FF"/>
<stop offset="1" stop-color="#C324FF"/>
</linearGradient>
<linearGradient id="paint11_linear" x1="12009.4" y1="264129" x2="237404" y2="264129" gradientUnits="userSpaceOnUse">
<stop stop-color="#B657FF"/>
<stop offset="1" stop-color="#2B66FF"/>
</linearGradient>
</defs>
</svg>
